brandFactory_export/2.Regular/Ducha baño bañera _2Regular.svg

<?xml version="1.0" encoding="UTF-8"?>
<svg width="24px" height="24px" viewBox="0 0 24 24" version="1.1" xmlns="http://www.w3.org/2000/svg" xmlns:xlink="http://www.w3.org/1999/xlink">
    <title>2.Regular/Ducha baño bañera _2Regular</title>
    <g id="Symbols" stroke="none" stroke-width="1" fill="none" fill-rule="evenodd">
        <g id="2.Regular/Ducha-baño-bañera-_2Regular" fill="#5CB615" fill-rule="nonzero">
            <path d="M17.102521,21.4689076 C16.8705882,21.2369748 16.5512605,21.092437 16.194958,21.092437 C15.8084034,21.092437 15.4722689,21.2739496 15.2369748,21.5462185 L8.32268908,21.5462185 C8.08739496,21.2739496 7.7512605,21.092437 7.36470588,21.092437 C7.01512605,21.092437 6.69915966,21.2336134 6.46722689,21.4588235 C4.3394958,21.0621849 2.13109244,19.3142857 2.13109244,17.3109244 L2.13109244,14.7630252 L21.4789916,14.7630252 L21.482368,17.3109244 C21.4890756,19.3310924 19.2436975,21.0890756 17.102521,21.4689076 Z M1.97983193,12.3159664 L21.6436975,12.3159664 C21.9159664,12.3159664 22.1344538,12.5344538 22.1344538,12.8033613 C22.1344538,13.0722689 21.9159664,13.2907563 21.6436975,13.2907563 L1.97983193,13.2907563 C1.70756303,13.2907563 1.48907563,13.0722689 1.48907563,12.8033613 C1.48907563,12.5310924 1.71092437,12.3159664 1.97983193,12.3159664 Z M13.2134454,10.594958 C13.3781513,10.4537815 13.7478992,10.4470588 13.8890756,10.4672269 C14.0941176,10.5008403 14.2991597,10.4470588 14.4571429,10.3193277 C14.6184874,10.194958 14.7226891,10.010084 14.7394958,9.80840336 C14.7764706,9.42521008 14.9210084,9.32436975 14.9680672,9.2907563 C15.210084,9.11932773 15.6504202,9.17310924 15.7815126,9.2 C16.0336134,9.2605042 16.3058824,9.18991597 16.4907563,9.00504202 C16.9378151,8.55798319 17.2504202,8.57478992 17.3478992,8.58823529 C17.8151261,8.62521008 18.2521008,9.09579832 18.3798319,9.27058824 C18.5344538,9.48907563 18.7966387,9.61008403 19.0655462,9.57983193 C19.687395,9.51596639 20.1478992,9.61680672 20.4436975,9.87563025 C20.7932773,10.1848739 20.8605042,10.6689076 20.8739496,10.8369748 L13.102521,10.8369748 C13.1294118,10.6722689 13.1865546,10.6151261 13.2134454,10.594958 L13.2134454,10.594958 Z M7.54957983,5.05546218 C7.64033613,4.57478992 8.06386555,4.21176471 8.57142857,4.21176471 C9.08235294,4.21176471 9.50588235,4.57815126 9.59663866,5.05546218 L7.54957983,5.05546218 Z M23.6235294,12.8 C23.6235294,11.9663866 23.0957983,11.2571429 22.3563025,10.9747899 C22.3596639,10.9546218 22.3697479,10.9344538 22.3697479,10.9142857 C22.3731092,10.7831933 22.3596639,9.61008403 21.4554622,8.79663866 C20.9109244,8.3092437 20.1815126,8.06386555 19.3142857,8.0907563 C18.9680672,7.72436975 18.3260504,7.19327731 17.4756303,7.12268908 C17.0453782,7.08907563 16.3966387,7.16638655 15.7210084,7.71092437 C15.307563,7.67394958 14.6588235,7.70756303 14.1109244,8.08739496 C13.8689076,8.25546218 13.5831933,8.54117647 13.4084034,9.00504202 C13.0453782,9.04537815 12.6084034,9.16638655 12.2453782,9.47563025 C11.9731092,9.70756303 11.6638655,10.1378151 11.6235294,10.8403361 L3.63697479,10.8403361 L3.63697479,3.55966387 C3.63697479,2.41008403 4.58151261,1.47563025 5.73781513,1.47563025 C6.65210084,1.47563025 7.43865546,2.06722689 7.7210084,2.8907563 C6.74285714,3.24033613 6.04033613,4.15462185 6.04033613,5.24369748 L6.04033613,5.51596639 C6.04033613,6.07731092 6.50084034,6.53109244 7.06890756,6.53109244 L10.0773109,6.53109244 C10.6420168,6.53109244 11.102521,6.07731092 11.102521,5.51596639 L11.102521,5.24369748 C11.102521,4.09411765 10.312605,3.12941176 9.24369748,2.83697479 C8.90084034,1.21680672 7.45210084,0 5.74117647,0 C3.76134454,0 2.1512605,1.59663866 2.1512605,3.55966387 L2.1512605,10.8403361 L1.98319328,10.8403361 C0.890756303,10.8403361 0.00336134454,11.7176471 0.00336134454,12.8033613 C0.00336134454,13.3747899 0.255462185,13.8890756 0.65210084,14.2453782 L0.65210084,17.3142857 C0.65210084,20.1512605 3.45546218,22.4268908 6.24201681,22.9210084 C6.45042017,23.3344538 6.87394958,23.6268908 7.37142857,23.6268908 C7.82521008,23.6268908 8.20504202,23.3781513 8.43361345,23.0252101 L15.1394958,23.0252101 C15.3647059,23.3781513 15.7445378,23.6268908 16.1983193,23.6268908 C16.692437,23.6268908 17.112605,23.3378151 17.3243697,22.9310924 C20.1310924,22.4605042 22.9781513,20.1781513 22.9781513,17.3142857 L22.9747899,14.2521008 C23.3680672,13.8890756 23.6235294,13.3747899 23.6235294,12.8 L23.6235294,12.8 Z" id="Ducha-baño-bañera-_2Regular"></path>
        </g>
    </g>
</svg>

<svg width="24" height="24" viewBox="0 0 24 24" xmlns="http://www.w3.org/2000/svg"><path d="M17.103 21.469a1.277 1.277 0 00-.908-.377c-.387 0-.723.182-.958.454H8.323a1.263 1.263 0 00-.958-.454c-.35 0-.666.142-.898.367-2.128-.397-4.336-2.145-4.336-4.148v-2.548H21.48l.003 2.548c.007 2.02-2.238 3.778-4.38 4.158zM1.98 12.316h19.664a.488.488 0 110 .975H1.98a.488.488 0 110-.975zm11.233-1.721c.165-.141.535-.148.676-.128.205.034.41-.02.568-.148a.724.724 0 00.282-.51c.037-.384.182-.485.23-.518.241-.172.681-.118.813-.091.252.06.524-.01.709-.195.447-.447.76-.43.857-.417.467.037.904.508 1.032.683a.74.74 0 00.686.309c.621-.064 1.082.037 1.378.296.35.309.417.793.43.961h-7.771c.026-.165.084-.222.11-.242zM7.55 5.055a1.044 1.044 0 012.047 0H7.55zM23.624 12.8c0-.834-.528-1.543-1.268-1.825.004-.02.014-.04.014-.06.003-.132-.01-1.305-.915-2.118-.544-.488-1.273-.733-2.14-.706-.347-.367-.989-.898-1.84-.968-.43-.034-1.078.043-1.754.588-.413-.037-1.062-.003-1.61.376a1.924 1.924 0 00-.703.918c-.363.04-.8.161-1.163.47-.272.233-.581.663-.621 1.365H3.637V3.56c0-1.15.945-2.084 2.1-2.084.915 0 1.702.591 1.984 1.415-.978.35-1.68 1.264-1.68 2.353v.272c0 .561.46 1.015 1.028 1.015h3.008a1.02 1.02 0 001.026-1.015v-.272c0-1.15-.79-2.115-1.86-2.407A3.592 3.592 0 005.742 0c-1.98 0-3.59 1.597-3.59 3.56v7.28h-.168c-1.092 0-1.98.878-1.98 1.963 0 .572.252 1.086.65 1.442v3.07c0 2.836 2.802 5.112 5.589 5.606.208.413.632.706 1.13.706.453 0 .833-.249 1.062-.602h6.705c.226.353.606.602 1.06.602.493 0 .914-.29 1.125-.696 2.807-.47 5.654-2.753 5.654-5.617l-.003-3.062c.393-.363.649-.877.649-1.452z" fill="#5CB615" fill-rule="nonzero"/></svg>
